!!!!SEGMENT: pl-kk--kk-i-136--002_anonim--vinea-mea-electa.krn
!!!cenid: 16xx:748
!!!COM: Anonim
!!!COM-rismID: pe30004985
!!!CDT:
!!!CNT:
!!!OTL: Vinea mea electa
!!!PDT:
!!!AGN: Sacred
!!!SMS-siglum: PL-Kk
!!!SMS-shelfmark: Kk.I.136
!!!SMS-shelfwork: 002 W
!!!SMS-variant:
!!!SMS-altvar:
!!!NIFC-rismSourceID: 1001143720
!!!NIFC-islandoraID: pl-kk:3571
!!!URL-pdf-islandora: https://repozytorium.nifc.pl/islandora/object/pl-kk%3A3571/datastream/PDF/view
!!!URL-scan: https://polish.musicsources.pl/pl/lokalizacje/galeria/rekopisy/5766 @EN{Scan on Polish Music Sources Website} @PL{Skany w portalu Dziedzictwo Muzyki Polskiej w otwartym dostępie}
!!!ONB-nifc: UWAGA: utwory w zbiorze: 1. Caligaverunt oculi a fletu meo, 2. Vinea mea electa, 3. Sepulto Domine, 4. Ecce quo modo moritur
!!!AIN: 2 empty 1 tenor 1 vox
!!!key:
**kern	**text	**kern	**text	**kern	**text	**kern	**text
*part4	*part4	*part3	*part3	*part2	*part2	*part1	*part1
*staff4	*staff4	*staff3	*staff3	*staff2	*staff2	*staff1	*staff1
*Iempty	*	*Iempty	*	*Itenor	*	*Ivox	*
*I"Baſsus	*	*I"[Baſsus]	*	*I"Tenor	*	*I"Cantus Primus.	*
*I'B	*	*I'[B]	*	*I'T	*	*I'S 1	*
*clefF4	*	*clefF3	*	*clefC4	*	*clefC1	*
*k[b-]	*	*k[b-]	*	*k[b-]	*	*k[b-]	*
*g:	*	*g:	*	*g:	*	*g:	*
*M2/2	*	*M2/2	*	*M2/2	*	*M2/2	*
*met(c|)	*	*met(c|)	*	*met(c|)	*	*met(c|)	*
=1-	=1-	=1-	=1-	=1-	=1-	=1-	=1-
*2\right	*	*2\right	*	*2\right	*	*2\right	*
!LO:TX:t=P:problem=all\right&colon; global	!	!LO:TX:t=P:problem=all\right&colon; global	!	!LO:TX:t=P:problem=all\right&colon; global	!	!LO:TX:t=P:problem=all\right&colon; global	!
!LO:TX:a:t=P:problem=inicjał "V" na pięciolinii przed kluczem	!	!LO:TX:a:t=P:problem=inicjał "V" na pięciolinii przed kluczem	!	!LO:TX:a:t=P:problem=inicjał "V" na pięciolinii przed kluczem	!	!LO:TX:a:t=P:problem=inicjał "V" na pięciolinii przed kluczem	!
!LO:TX:a:t=P:problem=w źródle brak metrum	!	!LO:TX:a:t=P:problem=w źródle dwa znaki przykluczowe&colon; BB-, B-	!	!	!	!LO:TX:t=P:problem=w źródle metrum (C.)	!
1.G	Vi-	1.G	Vi-	1.B-	Vi-	1.g	Vi-
=2-	=2-	=2-	=2-	=2-	=2-	=2-	=2-
.	.	.	.	.	.	.	.
2G\	-ne-	2G\	-ne-	2B-\	-ne-	2g/	-ne-
=3-	=3-	=3-	=3-	=3-	=3-	=3-	=3-
1C	-a	1C	-a	1c	-a	2g,</	-a
.	.	.	.	.	.	1g\	me-
=4-	=4-	=4-	=4-	=4-	=4-	=4-	=4-
1D	me-	1D	me-	1A	me-	.	.
.	.	.	.	.	.	2f/	.
=5-	=5-	=5-	=5-	=5-	=5-	=5-	=5-
!LO:TX:t=P:problem=kreska pseudotaktowa	!	!LO:TX:t=P:problem=kreska pseudotaktowa	!	!LO:TX:t=P:problem=kreska pseudotaktowa	!	!LO:TX:t=P:problem=kreska pseudotaktowa	!
1G	-a	1G	-a	1G	-a	1g	-a
=6-	=6-	=6-	=6-	=6-	=6-	=6-	=6-
2r	.	2r	.	2r	.	2r	.
2D/	e-	2D/	e-	2A/	e-	2f/	e-
=7-	=7-	=7-	=7-	=7-	=7-	=7-	=7-
2.E-X\	-Le-	2.E-X/	-le-	4G/	-le-	2.g/	-le-
.	.	.	.	4A/	.	.	.
.	.	.	.	2.B-\	.	.	.
4D/	.	4D/	.	.	.	4f/	.
=8-	=8-	=8-	=8-	=8-	=8-	=8-	=8-
1C	.	1C	.	.	.	1e-X	.
.	.	.	.	8A/L	.	.	.
.	.	.	.	8G/J	.	.	.
.	.	.	.	2A/	.	.	.
=9-	=9-	=9-	=9-	=9-	=9-	=9-	=9-
!LO:TX:t=P:problem=kreska pseudotaktowa	!	!LO:TX:t=P:problem=kreska pseudotaktowa	!	!LO:TX:t=P:problem=kreska pseudotaktowa	!	!LO:TX:t=P:problem=kreska pseudotaktowa	!
1BB-	-cta	1BB-	-cta	1B-	-cta	1d	-cta
=10-	=10-	=10-	=10-	=10-	=10-	=10-	=10-
2r	.	2r	.	2r	.	2r	.
2D/	e-	2D/	e-	2A/	e-	2f/	e-
=11-	=11-	=11-	=11-	=11-	=11-	=11-	=11-
2G\	-go	2G\	-go	2B-\	-go	2g/	-go
1F\	te	1F\	te	1A\	te	1a\	te
=12-	=12-	=12-	=12-	=12-	=12-	=12-	=12-
.	.	.	.	.	.	.	.
2G\	plan-	2G\	plan-	2B-\	plan-	2g/	plan-
=13-	=13-	=13-	=13-	=13-	=13-	=13-	=13-
1C	-ta-	1C	-ta-	1c	-ta-	1g	-ta-
=14-	=14-	=14-	=14-	=14-	=14-	=14-	=14-
!LO:TX:t=P:problem=kreska pseudotaktowa	!	!LO:TX:t=P:problem=kreska pseudotaktowa	!	!LO:TX:t=P:problem=kreska pseudotaktowa	!	!LO:TX:t=P:problem=kreska pseudotaktowa	!
1D	-ui	1D	-ui	1A	-ui	1f	-ui
=15-	=15-	=15-	=15-	=15-	=15-	=15-	=15-
!	!	!	!	!LO:N:vis=1-	!	!	!
2r	.	2r	.	2r	.	2r	.
2.G\	quo-	2.G\	quo-	2.B-\	quo-	2.g/	quo-
=16-	=16-	=16-	=16-	=16-	=16-	=16-	=16-
.	.	.	.	.	.	.	.
4G\	-mo-	4G\	-mo-	4B-\	-mo-	4g/	-mo-
2F,<\	-do	2F/	-do	2A/	-do	2a\	-do
=17-	=17-	=17-	=17-	=17-	=17-	=17-	=17-
2G\	Con-	2G\	Con-	2d\	Con-	2cc\	Con-
2A\	-uer-	2A\	-uer-	2c\	-uer-	1a\	-uer-
=18-	=18-	=18-	=18-	=18-	=18-	=18-	=18-
1B-X	-ſa	1B-X	-ſa	1.d	-ſa	.	.
.	.	.	.	.	.	2g/	-ſa
=19-	=19-	=19-	=19-	=19-	=19-	=19-	=19-
*custos:D	*	*	*	*	*	*	*
!LO:TX:t=P:problem=kreska pseudotaktowa	!	!LO:TX:t=P:problem=kreska pseudotaktowa	!	!	!	!LO:TX:t=P:problem=kreska pseudotaktowa	!
1A	es	1A	es	.	.	1a	es
*	*	*	*	*custos:f	*	*	*
!	!	!	!	!LO:TX:t=P:problem=kreska pseudotaktowa	!	!	!
.	.	.	.	2c\	es	.	.
!LO:LB:g=original	!	!	!	!LO:LB:g=original	!	!	!
=20-	=20-	=20-	=20-	=20-	=20-	=20-	=20-
2r	.	2r	.	2r	.	2r	.
2D/	in	2D/	in	2f\	in	2a\	in
=21-	=21-	=21-	=21-	=21-	=21-	=21-	=21-
2A\	a-	2A\	a-	2e\	a-	2cc\	a-
*	*	*custos:F	*	*	*	*	*
1B-\	-ma-	1B-X\	-ma-	1d\	-ma-	1b-\	-ma-
!	!	!LO:LB:g=original	!	!	!	!	!
=22-	=22-	=22-	=22-	=22-	=22-	=22-	=22-
.	.	.	.	.	.	.	.
*	*	*	*	*	*	*custos:g	*
2F\	-ri-	2F/	-ri-	2c\	-ri-	2a\	-ri-
!	!	!	!	!	!	!LO:LB:g=original	!
=23-	=23-	=23-	=23-	=23-	=23-	=23-	=23-
2.G\	-tu-	2.G\	-tu-	2.B-\	-tu-	1.g	-tu-
4F\	.	4F\	.	4A/	.	.	.
=24-	=24-	=24-	=24-	=24-	=24-	=24-	=24-
2E-X\	.	2E-X/	.	2G/	.	.	.
2E-\	-di-	2E-/	-di-	2G/	-di-	2g/	-di-
=25-	=25-	=25-	=25-	=25-	=25-	=25-	=25-
!LO:TX:t=P:problem=kreska pseudotaktowa	!	!LO:TX:t=P:problem=kreska pseudotaktowa	!	!LO:TX:t=P:problem=kreska pseudotaktowa	!	!LO:TX:t=P:problem=kreska pseudotaktowa	!
1D	-nem	1D	-nem	1A	-nem	1f	-nem
=26-	=26-	=26-	=26-	=26-	=26-	=26-	=26-
2r	.	2r	.	2r	.	2r	.
1G\	Vt	1G\	Vt	1B-\	Vt	1g\	Vt
=27-	=27-	=27-	=27-	=27-	=27-	=27-	=27-
.	.	.	.	.	.	.	.
2F\	me	2F/	me	2A/	me	2a\	me
=28-	=28-	=28-	=28-	=28-	=28-	=28-	=28-
2G\	Cru-	2G\	Cru-	2G/	Cru-	2b-\	Cru-
2C/	-ci-	2C/	-ci-	2e-X\	-ci-	2.cc\	-ci-
=29-	=29-	=29-	=29-	=29-	=29-	=29-	=29-
2.D/	-fi-	2.D/	-fi-	1d	-fi-	.	.
.	.	.	.	.	.	4b-\	.
.	.	.	.	.	.	1b-\	-fi-
4Eny\	.	4Eny/	.	.	.	.	.
=30-	=30-	=30-	=30-	=30-	=30-	=30-	=30-
!	!	!	!	!LO:SIC:l:v:s=-gu-	!	!	!
2F\	.	2F/	.	1c	-ge-	.	.
!LO:SIC:l:v:s=-gu-	!	!LO:SIC:l:v:s=-gu-	!	!	!	!LO:SIC:l:v:s=-gu-	!
2F\	-ge-	2F/	-ge-	.	.	2a\	-ge-
=31-	=31-	=31-	=31-	=31-	=31-	=31-	=31-
!LO:TX:t=P:problem=kreska pseudotaktowa	!	!LO:TX:t=P:problem=kreska pseudotaktowa	!	!LO:TX:t=P:problem=kreska pseudotaktowa	!	!LO:TX:t=P:problem=kreska pseudotaktowa	!
1BB-	-res	1BB-	-res	1B-	-res	1b-	-res
=32-	=32-	=32-	=32-	=32-	=32-	=32-	=32-
2r	.	2r	.	2r	.	2r	.
1B-\	et	1B-\	et	1d\	et	1b-\	et
=33-	=33-	=33-	=33-	=33-	=33-	=33-	=33-
.	.	.	.	.	.	.	.
!	!	!	!	!LO:SIC:l:v:s=Bar-	!	!	!
2F\	Bar-	2F/	Bar-	2c\	Ba-	2a\	Bar-
=34-	=34-	=34-	=34-	=34-	=34-	=34-	=34-
!LO:SIC:l:v:s=-rab-	!	!LO:SIC:l:v:s=-rab-	!	!	!	!LO:SIC:l:v:s=-rab-	!
1G	-ra-	1G	-ra-	1B-	-rab-	1g	-ra-
=35-	=35-	=35-	=35-	=35-	=35-	=35-	=35-
2D/	-bam	2D/	-bam	2A,</	-bam	2f/	-bam
2G\	di-	2G\	.	2B-\	di-	2g/	di-
=36-	=36-	=36-	=36-	=36-	=36-	=36-	=36-
2.A\	-mit-	2.A\	di-	2.A/	-mit-	2.eny/	-mit-
4A\	-te-	4A\	-mit-	4A/	-te-	4e/	-te-
=37-	=37-	=37-	=37-	=37-	=37-	=37-	=37-
2D/	-res	2D/	-teres	2A/	-res	2f/	-res
*custos:F	*	*	*	*	*	*	*
!LO:TX:t=P:problem=kreska pseudotaktowa	!	!LO:TX:t=P:problem=kreska pseudotaktowa	!	!LO:TX:t=P:problem=kreska pseudotaktowa	!	!LO:TX:t=P:problem=kreska pseudotaktowa	!
2r	.	2r	.	2r	.	2r	.
!LO:LB:g=original	!	!	!	!	!	!	!
=38-	=38-	=38-	=38-	=38-	=38-	=38-	=38-
2r	.	2r	.	2r	.	2r	.
1F\	et	1F\	et	2A/	et	1a\	et
=39-	=39-	=39-	=39-	=39-	=39-	=39-	=39-
.	.	.	.	2c\	Bar-	.	.
!	!	!	!	!	!	!LO:SIC:l:v:s=Bar-	!
2BB-/	Bar-	2BB-/	Bar-	2d\	.	1b-\	Ba-
=40-	=40-	=40-	=40-	=40-	=40-	=40-	=40-
!LO:SIC:l:v:s=-rab-	!	!LO:SIC:l:v:s=-rab-	!	!LO:SIC:l:v:s=-rab-	!	!	!
1F	-ra-	1F	-ra-	(>1c	-ra-	.	.
.	.	.	.	.	.	2a\	-rab-
=41-	=41-	=41-	=41-	=41-	=41-	=41-	=41-
*	*	*	*	*custos:c	*	*	*
2BB-/	-bam	2BB-/	-bam	2B-\)	-bam	2b-,<\	-bam
!	!	!	!	!LO:LB:g=original	!	!	!
2E-X\	di-	2E-X/	.	2c\	di-	1g\	di-
=42-	=42-	=42-	=42-	=42-	=42-	=42-	=42-
1.D	-mit-	1.D	di-	1.A	-mit-	.	.
.	.	.	.	.	.	4f/	.
.	.	.	.	.	.	4e/	.
=43-	=43-	=43-	=43-	=43-	=43-	=43-	=43-
.	.	.	.	.	.	2f/	-mit-
2D/	-te-	2D/	-mit-	2A/	-te-	2f/	-te-
=44-	=44-	=44-	=44-	=44-	=44-	=44-	=44-
!LO:N:vis=1	!	!	!	!LO:N:vis=1	!	!	!
!LO:TX:t=P:problem=w źródle jedna kreska	!	!	!	!LO:TX:t=P:problem=łuk nad nutą	!	!	!
!LO:TX:t=P:N:vis=1):problem=złe renderowanie (LO	!	!	!	!LO:TX:t=P:N:vis=1):problem=złe renderowanie (LO	!	!LO:TX:t=P:problem=brevis jest jednocześnie końcową kreską taktową	!
!	!	!LO:TX:t=P:problem=nuta jest jednocześnie końcową kreską taktową	!	!	!	!LO:TX:t=P:problem=łuk nad nutą	!
0G;<	-res	0G	-teres	0G	-res	0g	-res
!	!	!	!	!	!	!LO:LB:g=original	!
=45-	=45-	=45-	=45-	=45-	=45-	=45-	=45-
.	.	.	.	.	.	.	.
!	!	!LO:LB:g=original	!	!	!	!	!
=46||	=46||	=46||	=46||	=46||	=46||	=46||	=46||
*clefF4	*	*clefF3	*	*clefC4	*	*clefC1	*
*k[b-]	*	*k[b-]	*	*k[b-]	*	*k[b-]	*
*	*	*M2/2	*	*	*	*	*
*	*	*met(c|)	*	*	*	*	*
!LO:TX:a:t=P:problem=inicjał "S" na pięciolinii przed kluczem	!	!LO:TX:a:t=P:problem=inicjał "S" na pięciolinii przed kluczem	!	!LO:TX:a:t=P:problem=inicjał "S" na pięciolinii przed kluczem	!	!LO:TX:a:t=P:problem=inicjał "S" na pięciolinii przed kluczem	!
!LO:TX:a:t=P:problem=w źródle bemol za kluczem	!	!LO:TX:a:t=P:problem=w źródle klucz przed bemolami	!	!LO:TX:a:t=P:problem=w źródle bemol za kluczem	!	!LO:TX:a:t=P:problem=w źródle bemol za kluczem	!
!	!	!LO:TX:a:t=P:problem=w źródle dwa znaki przykluczowe&colon; BB-, B-	!	!	!	!	!
2r	.	2r	.	2r	.	2r	.
1G\	Se-	1G\	Se-	2.B-\	Se-	1b-\	Se-
=47-	=47-	=47-	=47-	=47-	=47-	=47-	=47-
.	.	.	.	.	.	.	.
.	.	.	.	8A/L	.	.	.
.	.	.	.	8G/J	.	.	.
1D\	-pi-	1D\	-pi-	2A/	.	2a\	-pi-
=48-	=48-	=48-	=48-	=48-	=48-	=48-	=48-
.	.	.	.	2A/	-pi-	1f	-ui
2BB-/	-ui	2BB-/	-ui	2B-\	-ui	.	.
=49-	=49-	=49-	=49-	=49-	=49-	=49-	=49-
!LO:TX:t=P:problem=kreska pseudotaktowa	!	!LO:TX:t=P:problem=kreska pseudotaktowa	!	!LO:TX:t=P:problem=kreska pseudotaktowa	!	!LO:TX:t=P:problem=kreska pseudotaktowa	!
1F	te	1F	te	1c	te	1a	te
=50-	=50-	=50-	=50-	=50-	=50-	=50-	=50-
2r	.	2r	.	2r	.	2r	.
2C/	et	2C/	et	2c\	et	2g/	et
=51-	=51-	=51-	=51-	=51-	=51-	=51-	=51-
2.G\	La-	2.G\	La-	2.B-\	La-	2.g/	La-
4G\	-pi-	4G\	-pi-	4B-\	-pi-	4g/	-pi-
=52-	=52-	=52-	=52-	=52-	=52-	=52-	=52-
2G\	-des	2G\	-des	2B-\	-des	2g/	-des
!LO:TX:t=P:problem=kreska pseudotaktowa	!	!LO:TX:t=P:problem=kreska pseudotaktowa	!	!LO:TX:t=P:problem=kreska pseudotaktowa	!	!LO:TX:t=P:problem=kreska pseudotaktowa	!
2r	.	2r	.	2r	.	2r	.
=53-	=53-	=53-	=53-	=53-	=53-	=53-	=53-
2r	.	2r	.	2r	.	2r	.
*	*ij	*	*	*	*	*	*ij
2D/	et	2D/	et	2d\	et	2a\	et
=54-	=54-	=54-	=54-	=54-	=54-	=54-	=54-
2.A\	La-	2.A\	la-	4c\	la-	2.a\	La-
.	.	.	.	2d\	.	.	.
4A\	-pi-	4A\	-pi-	4c\	-pi-	4a\	-pi-
=55-	=55-	=55-	=55-	=55-	=55-	=55-	=55-
2D/	-des	2D/	-des	2d\	-des	2a\	-des
*	*Xij	*	*	*	*	*	*Xij
*custos:A	*	*	*	*	*	*	*
!LO:TX:t=P:problem=kreska pseudotaktowa	!	!LO:TX:t=P:problem=kreska pseudotaktowa	!	!LO:TX:t=P:problem=kreska pseudotaktowa	!	!LO:TX:t=P:problem=kreska pseudotaktowa	!
2r	.	2r	.	2r	.	2r	.
!LO:LB:g=original	!	!	!	!	!	!	!
=56-	=56-	=56-	=56-	=56-	=56-	=56-	=56-
2r	.	2r	.	2r	.	2r	.
2A\	e-	2A\	ele-	2c\	e-	2a\	e-
=57-	=57-	=57-	=57-	=57-	=57-	=57-	=57-
2G\	-le-	2G\	-gi	2d\	-le-	2b-\	-le-
*	*	*	*	*custos:d	*	*	*
2F\	-gi	2F/	.	2f\	-gi	2.a\	-gi
!	!	!	!	!LO:LB:g=original	!	!	!
=58-	=58-	=58-	=58-	=58-	=58-	=58-	=58-
1B-	ex	1B-	ex	1d	ex	.	.
.	.	.	.	.	.	8g/L	.
.	.	.	.	.	.	8f/J	.
.	.	.	.	.	.	2g/	ex
=59-	=59-	=59-	=59-	=59-	=59-	=59-	=59-
!LO:TX:t=P:problem=kreska pseudotaktowa	!	!LO:TX:t=P:problem=kreska pseudotaktowa	!	!LO:TX:t=P:problem=kreska pseudotaktowa	!	!LO:TX:t=P:problem=kreska pseudotaktowa	!
1A	te	1A	te	1c	te	1a	te
=60-	=60-	=60-	=60-	=60-	=60-	=60-	=60-
2r	.	2r	.	2r	.	2r	.
1G\	et	1G\	et	1B-\	et	1g\	et
=61-	=61-	=61-	=61-	=61-	=61-	=61-	=61-
.	.	.	.	.	.	.	.
2c\	ae-	2c\	ae-	2c\	ae-	2g/	ae-
=62-	=62-	=62-	=62-	=62-	=62-	=62-	=62-
2B-\	-di-	2B-\	-di-	2d\	-di-	2b-\	-di-
2F\	-fi-	2F/	-fi-	2c\	-fi-	2a\	-fi-
=63-	=63-	=63-	=63-	=63-	=63-	=63-	=63-
1G	-ca-	1G	-ca-	1B-	-ca-	1g	-ca-
=64-	=64-	=64-	=64-	=64-	=64-	=64-	=64-
*	*	*	*	*	*	*custos:g	*
1D,<	-ui	1D	-ui	1A,<	-ui	1f	-ui
!	!	!	!	!	!	!LO:LB:g=original	!
=65-	=65-	=65-	=65-	=65-	=65-	=65-	=65-
2.G\	tur-	2.G\	tur-	2.B-\	tur-	0g	tur-
4F\	.	4F/	.	4A/	.	.	.
=66-	=66-	=66-	=66-	=66-	=66-	=66-	=66-
1E-X	.	1E-X	.	1G	.	.	.
=67-	=67-	=67-	=67-	=67-	=67-	=67-	=67-
!LO:TX:t=P:problem=kreska pseudotaktowa	!	!LO:TX:t=P:problem=nad kreską taktową jest łuczek	!	!	!	!	!
1D;>	-rim	1D	-rim	1A	-rim	1f	-rim
!	!	!LO:LB:g=original	!	!	!	!	!
=68-	=68-	=68-	=68-	=68-	=68-	=68-	=68-
2r	.	2r	.	2r	.	2r	.
2.G\	Quo-	2.G\	Quo-	2.B-\	Quo-	2.g/	Quo-
=69-	=69-	=69-	=69-	=69-	=69-	=69-	=69-
.	.	.	.	.	.	.	.
4G\	-mo-	4G\	-mo-	4B-\	-mo-	4g/	-mo-
2F\	-do	2F/	-do	2A/	-do	2a\	-do
=70-	=70-	=70-	=70-	=70-	=70-	=70-	=70-
2G\	Con-	2G\	Con-	2d\	Con-	2cc\	Con-
2A\	-uer-	2A\	-uer-	2c\	-uer-	1a\	-uer-
=71-	=71-	=71-	=71-	=71-	=71-	=71-	=71-
1B-	-ſa	1B-	-ſa	1.d	-ſa	.	.
.	.	.	.	.	.	2g/	-ſa
=72-	=72-	=72-	=72-	=72-	=72-	=72-	=72-
!LO:TX:t=P:problem=kreska pseudotaktowa	!	!LO:TX:t=P:problem=kreska pseudotaktowa	!	!	!	!LO:TX:t=P:problem=kreska pseudotaktowa	!
1A	es	1A	es	.	.	1a	es
!	!	!	!	!LO:TX:t=P:problem=kreska pseudotaktowa	!	!	!
.	.	.	.	2c\	es	.	.
=73-	=73-	=73-	=73-	=73-	=73-	=73-	=73-
2r	.	2r	.	2r	.	2r	.
2D/	in	2D/	in	2f\	in	2a\	in
=74-	=74-	=74-	=74-	=74-	=74-	=74-	=74-
2A\	a-	2A\	a-	2eny\	a-	2cc\	a-
1B-\	-ma-	1B-\	-ma-	1d\	-ma-	1b-\	-ma-
=75-	=75-	=75-	=75-	=75-	=75-	=75-	=75-
.	.	.	.	.	.	.	.
*custos:G	*	*	*	*	*	*	*
2F\	-ri-	2F/	-ri-	2c\	-ri-	2a\	-ri-
!LO:LB:g=original	!	!	!	!	!	!	!
=76-	=76-	=76-	=76-	=76-	=76-	=76-	=76-
2.G\	-tu-	2.G\	-tu-	2.B-\	-tu-	1.g	-tu-
4F\	.	4F/	.	4A/	.	.	.
=77-	=77-	=77-	=77-	=77-	=77-	=77-	=77-
2E-X\	.	2E-X/	.	2G/	.	.	.
2E-\	-di-	2E-/	-di-	2G/	-di-	2g/	-di-
=78-	=78-	=78-	=78-	=78-	=78-	=78-	=78-
!LO:TX:t=P:problem=kreska pseudotaktowa	!	!LO:TX:t=P:problem=kreska pseudotaktowa	!	!LO:TX:t=P:problem=kreska pseudotaktowa	!	!LO:TX:t=P:problem=kreska pseudotaktowa	!
1D	-nem	1D	-nem	1A	-nem	1f	-nem
=79-	=79-	=79-	=79-	=79-	=79-	=79-	=79-
2r	.	2r	.	2r	.	2r	.
1G\	Vt	1G\	Vt	1B-\	Vt	1g\	Vt
=80-	=80-	=80-	=80-	=80-	=80-	=80-	=80-
.	.	.	.	.	.	.	.
*	*	*	*	*custos:G	*	*	*
2F\	me	2F\	me	2A/	me	2a\	me
!	!	!	!	!LO:LB:g=original	!	!	!
=81-	=81-	=81-	=81-	=81-	=81-	=81-	=81-
2G\	Cru-	2G\	Cru-	2G/	Cru-	2b-\	Cru-
2C/	-ci-	2C/	-ci-	2e-X\	-ci-	2.cc\	-ci-
=82-	=82-	=82-	=82-	=82-	=82-	=82-	=82-
2.D/	-fi-	2.D/	-fi-	1d	-fi-	.	.
.	.	.	.	.	.	4b-\	.
.	.	.	.	.	.	1b-\	-fi-
4Eny\	.	4Eny/	.	.	.	.	.
=83-	=83-	=83-	=83-	=83-	=83-	=83-	=83-
!	!	!	!	!LO:SIC:l:v:s=-gu-	!	!	!
2F\	.	2F/	.	1c	-ge-	.	.
!LO:SIC:l:v:s=-gu-	!	!LO:SIC:l:v:s=-gu-	!	!	!	!LO:SIC:l:v:s=-gu-	!
2F\	-ge-	2F/	-ge-	.	.	2a\	-ge-
=84-	=84-	=84-	=84-	=84-	=84-	=84-	=84-
!LO:TX:t=P:problem=kreska pseudotaktowa	!	!LO:TX:t=P:problem=kreska pseudotaktowa	!	!LO:TX:t=P:problem=kreska pseudotaktowa	!	!LO:TX:t=P:problem=kreska pseudotaktowa	!
1BB-	-res	1BB-	-res	1B-	-res	1b-	-res
=85-	=85-	=85-	=85-	=85-	=85-	=85-	=85-
2r	.	2r	.	2r	.	2r	.
1B-\	et	1B-\	et	1d\	et	1b-\	et
=86-	=86-	=86-	=86-	=86-	=86-	=86-	=86-
.	.	.	.	.	.	.	.
*	*	*	*	*	*	*custos:g	*
2F\	Bar-	2F/	Bar-	2c\	Bar-	2a\	Bar-
!	!	!	!	!	!	!LO:LB:g=original	!
=87-	=87-	=87-	=87-	=87-	=87-	=87-	=87-
!LO:SIC:l:v:s=-rab-	!	!LO:SIC:l:v:s=-rab-	!	!LO:SIC:l:v:s=-rab-	!	!LO:SIC:l:v:s=-rab-	!
1G	-ra-	1G	-ra-	1B-	-ra-	1g	-ra-
=88-	=88-	=88-	=88-	=88-	=88-	=88-	=88-
2D/	-bam	2D/	-bam	2A/	-bam	2f/	-bam
*	*	*custos:A	*	*	*	*	*
2G\	di-	2G\	di-	2B-\	.	2g/	di-
!	!	!LO:LB:g=original	!	!	!	!	!
=89-	=89-	=89-	=89-	=89-	=89-	=89-	=89-
2.A\	-mit-	2.A\	-mit-	2.A/	di-	2.e/	-mit-
4A\	-te-	4A\	-te-	4A/	-mit-	4e/	-te-
=90-	=90-	=90-	=90-	=90-	=90-	=90-	=90-
!	!	!LO:TX:t=P:problem=kreska pseudotaktowa	!	!	!	!	!
2D/	-res	1D/	-res	2A/	-teres	2f/	-res
!LO:TX:t=P:problem=kreska pseudotaktowa	!	!	!	!LO:TX:t=P:problem=kreska pseudotaktowa	!	!LO:TX:t=P:problem=kreska pseudotaktowa	!
2r	.	.	.	2r	.	2r	.
=91-	=91-	=91-	=91-	=91-	=91-	=91-	=91-
2r	.	2r	.	2r	.	2r	.
1F\	et	1F\	et	2A/	et	1a\	et
=92-	=92-	=92-	=92-	=92-	=92-	=92-	=92-
.	.	.	.	2c\	Bar-	.	.
!	!	!	!	!LO:SIC:l:v:s=-rab-	!	!	!
2BB-/	Bar-	2BB-/	Bar-	2d\	-ra-	1b-\	Bar-
=93-	=93-	=93-	=93-	=93-	=93-	=93-	=93-
*custos:BB	*	*	*	*	*	*	*
!LO:TX:t=P:problem=kreska pseudotaktowa	!	!	!	!	!	!	!
!LO:SIC:l:v:s=-rab-	!	!LO:SIC:l:v:s=-rab-	!	!	!	!	!
1F	-ra-	1F	-ra-	1c,<	-bam	.	.
!	!	!	!	!	!	!LO:SIC:l:v:s=-rab-	!
.	.	.	.	.	.	2a\	-ra-
!LO:LB:g=original	!	!	!	!	!	!	!
=94-	=94-	=94-	=94-	=94-	=94-	=94-	=94-
2BB-/	-bam	2BB-/	-bam	2B-\	.	2b-\	-bam
2E-X\	di-	2E-X/	.	2c\	di-	1g\	di-
=95-	=95-	=95-	=95-	=95-	=95-	=95-	=95-
1.D	-mit-	1.D	di-	1.A	-mit-	.	.
!	!	!	!	!	!	!LO:TX:t=P:problem=♯ below	!
.	.	.	.	.	.	4f#X/	.
.	.	.	.	.	.	4e/	.
=96-	=96-	=96-	=96-	=96-	=96-	=96-	=96-
!	!	!	!	!	!	!LO:TX:t=P:problem=♯ below	!
.	.	.	.	.	.	2f#X/	-mit-
2D/	-te-	2D/	-mit-	2A/	-te-	2f#/	-te-
=97-	=97-	=97-	=97-	=97-	=97-	=97-	=97-
!LO:TX:t=P:problem=nuta jest jednocześnie końcową kreską taktową	!	!LO:TX:t=P:problem=nuta jest jednocześnie końcową kreską taktową	!	!LO:TX:t=P:problem=nuta jest jednocześnie końcową kreską taktową	!	!LO:TX:t=P:problem=nuta jest jednocześnie końcową kreską taktową	!
0G;<	-res	0G;<	-teres	0G	-res	0g;<	-res
=98-	=98-	=98-	=98-	=98-	=98-	=98-	=98-
.	.	.	.	.	.	.	.
==	==	==	==	==	==	==	==
*-	*-	*-	*-	*-	*-	*-	*-
!!!system-decoration: [(s1,s2,s3,s4)]
!!!RDF**kern: > = above
!!!RDF**kern: < = below
!!!EED: Mateusz Mrugas
!!!EEV: 2021-02-19
!!!ENC: Krzysztof Stępień
!!!END: 2021-02-11
